X: 20
T:Julia Delaney
T:Ms. Julia Delaney
M:C|
L:1/8
R:Reel
K:DDor
A[|:dcAG F2DF|E2CE F2DA|dcAG F2DF|Addc defe|!
dcAG F2DF|E2CE F2DA|dcAG F2DF|1Addc d3A:|2Addc d3e|!
|:fede fagf|ecgc acgc|fede fagf|edcB Adde|!
fede fagf|ecgc acgc|fedf edcB|1Addc d3e:|2Addc d3A|]!
